src/img/svg/mail.svg

<svg width="16" height="12" viewBox="0 0 16 12" fill="none" xmlns="http://www.w3.org/2000/svg">
<path d="M15.46 0.59075C15.3007 0.399435 15.1 0.246886 14.873 0.144662C14.6461 0.0424392 14.3988 -0.00677511 14.15 0.00074952H1.71C1.294 -0.00770391 0.889502 0.137605 0.573977 0.408845C0.258452 0.680086 0.0540792 1.05819 0 1.47075C0 1.47075 0 1.47075 0 1.47075V9.77075C0 9.90075 0.06 10.0307 0.1 10.1607C0.202244 10.4616 0.390173 10.7259 0.640679 10.9214C0.891185 11.1168 1.19334 11.2348 1.51 11.2607C1.89974 11.2807 2.29026 11.2807 2.68 11.2607H14.15C14.5594 11.2621 14.9553 11.1149 15.2643 10.8464C15.5733 10.5778 15.7743 10.2063 15.83 9.80075C15.8403 9.7077 15.8403 9.6138 15.83 9.52075V1.52075C15.821 1.17666 15.6898 0.847007 15.46 0.59075ZM1.7 0.90075H14.22L14.16 1.00075L9.87 5.26075L8.19 6.94075C8.16191 6.97615 8.12618 7.00475 8.08549 7.0244C8.0448 7.04406 8.00019 7.05427 7.955 7.05427C7.90981 7.05427 7.8652 7.04406 7.82451 7.0244C7.78382 7.00475 7.74809 6.97615 7.72 6.94075L3.94 3.16075C3.22 2.43075 2.49 1.71075 1.76 1.00075L1.69 0.92075L1.7 0.90075ZM1.41 10.3707C1.39114 10.3846 1.36838 10.392 1.345 10.392C1.32162 10.392 1.29886 10.3846 1.28 10.3707C1.18944 10.3139 1.11573 10.2338 1.0665 10.1389C1.01727 10.0439 0.99431 9.93754 1 9.83075V1.39075L5.68 6.11075L5.25 6.53075L1.41 10.3707ZM2.52 10.4707L6.29 6.70075L6.67 7.07075L7.73 8.15075C7.75719 8.18419 7.7915 8.21115 7.83042 8.22966C7.86934 8.24818 7.9119 8.25779 7.955 8.25779C7.9981 8.25779 8.04066 8.24818 8.07958 8.22966C8.1185 8.21115 8.15281 8.18419 8.18 8.15075L9.51 6.82075L9.57 6.74075L13.3 10.4707H2.52ZM15 9.56075C14.9963 9.71315 14.9727 9.86441 14.93 10.0107C14.9042 10.1023 14.856 10.1859 14.7896 10.2541C14.7232 10.3222 14.6408 10.3726 14.55 10.4007C14.5416 10.4095 14.5315 10.4165 14.5203 10.4213C14.5092 10.426 14.4971 10.4285 14.485 10.4285C14.4729 10.4285 14.4608 10.426 14.4497 10.4213C14.4385 10.4165 14.4284 10.4095 14.42 10.4007L12.21 8.16075L10.21 6.21075L10.15 6.15075C11.8 4.55075 13.4 3.00075 15 1.35075V9.56075Z" fill="black"/>
</svg>

<svg xmlns="http://www.w3.org/2000/svg" viewBox="0 0 15.85 11.32"><title>презентация oversize</title><g id="Слой_1" data-name="Слой 1"><path d="M15.46.59A1.64,1.64,0,0,0,14.15,0H1.71A1.69,1.69,0,0,0,0,1.47s0,0,0,0v8.3c0,.13.06.26.1.39a1.63,1.63,0,0,0,1.41,1.1,11.42,11.42,0,0,0,1.17,0H14.15a1.69,1.69,0,0,0,1.68-1.46,1.27,1.27,0,0,0,0-.28v-8A1.45,1.45,0,0,0,15.46.59ZM1.7.9H14.22L14.16,1,9.87,5.26,8.19,6.94a.3.3,0,0,1-.47,0L3.94,3.16C3.22,2.43,2.49,1.71,1.76,1L1.69.92Zm-.29,9.47a.11.11,0,0,1-.13,0A.6.6,0,0,1,1,9.83V1.39L5.68,6.11l-.43.42Zm1.11.1L6.29,6.7l.38.37L7.73,8.15a.29.29,0,0,0,.45,0L9.51,6.82l.06-.08,3.73,3.73ZM15,9.56a1.76,1.76,0,0,1-.07.45.57.57,0,0,1-.38.39.09.09,0,0,1-.13,0L12.21,8.16l-2-1.95-.06-.06C11.8,4.55,13.4,3,15,1.35V9.56Z"/></g></svg>
